X:1
T:Title
%%score { 1 | 2 }
L:1/8
Q:1/4=100
M:4/4
K:F
V:1 treble nm="Grand Piano"
V:2 bass 
V:1
 AAAA FFCA, | FFFF [EG]4 | [EG][EG][EG][EG] EEB,G, | F2 [EG]2 A4 | cccc [Fd][Fd] [Fd]2 | %5
w: Elisha~A.~Hoffman * * * * * * *|||||
 BBB[GB] [Gc]4 | AAAA Bc d2 | cBA[EG] F4 | AGFC FC[K:bass]A,F, | AGFC [EG]2 z2 | %10
w: |||||
 [CFA][B,CG][A,CF][B,C] [A,CF][CEG][CFA][DGB] | [CFA]2 [B,EG]2 [A,F]4 |] %12
w: ||
V:2
 [F,CF][F,CF][F,CF][F,CF] [F,A,C][F,A,C]A,F, | [F,A,C][F,A,C][F,A,C][F,A,C] [C,C]4 | %2
 [C,C][C,C][C,C][C,C] [C,G,C][C,G,C]G,E, | [D,A,D]2 [C,C]2[K:treble] [F,CF]4 | %4
 [F,A,F][A,CF][G,B,E][F,A,F][K:bass] [B,,B,][B,,B,] [B,,B,]2 | %5
 [G,DG][G,DG][G,DG][K:bass][F,C] [E,C]4 | [F,CF][F,CF][F,CF][K:treble][F,CF] [G,CF][A,CF] [B,F]2 | %7
 [A,CF][B,DG][CF][K:bass][C,B,] [F,A,]4 | [F,CF][F,B,C][F,A,C][G,B,] .[F,A,C]2 z2 | %9
 [F,CF][F,B,C][F,A,C][F,A,] [C,C]CB,G, | F,F,F,G, F,B,,F,B,, | C,2 C,2 F,4 |] %12

